X: 13185
T: First Slip, The
R: slip jig
M: 9/8
K: Gmajor
dBG GDG G2B|dBG GBd gfe|dBG GDG G2B|cAF FGA cBA:|
GBd dBd d2B|GBd dBd gdB|GBd dBd ded|cAG FGA cBA:|

